svg/u2660.svg

<svg viewBox="0 0 128 128" xmlns="http://www.w3.org/2000/svg">
  <path d="M29.46,69.64L10.32,80.17c0,0-0.22,14.91,14.36,20.2c12.22,4.44,23.49-1.78,28.95-6.97 c3.92-3.73,9.7-12.29,9.7-12.29L29.46,69.64z" fill="#606265"/>
  <path d="M67.7,80.71l0.96,5.6c0,0,8.33,14.34,24.86,14.75c14.2,0.35,21.31-9.15,23.35-15.84 c2.05-6.69,0.58-13.36,0.58-13.36L67.7,80.71z" fill="#606265"/>
  <path d="M63.81,3.14C62.19,3.02,38.89,24.46,27,40.28c-6.75,8.98-14.14,21.14-16.12,31.69 c-2.05,10.93,0.67,17.99,8.33,21.85c16.25,8.19,28.66-3.64,30.66-5.42c2.66-2.37,5.84-6.88,7.38-6.05c0.76,0.41,0.2,7.84-0.36,12.78 c-0.53,4.71-2.82,10.38-10.38,13.49s-10.71,3.22-13.49,5.67c-2.78,2.44-2.98,4.24-2.98,4.24l3.11,2.33l59.79-0.22l2.33-1.65 c0,0-1.07-3.17-6.24-5.73c-4.13-2.05-8.1-3.11-12.59-5.75c-4.19-2.46-5.91-8.67-5.99-12.05c-0.08-3.75-0.87-13.19,0.09-13.67 c1.51-0.75,2.88,2.88,7.53,6.84c2.75,2.35,16.36,12.01,29.36,3.82c7.38-4.64,10.84-11.77,10.11-19.67 c-1.24-13.31-12.7-28.98-21.44-38.92C82.18,18.02,65.79,3.29,63.81,3.14z" fill="#464C4F"/>
  <path d="M30.05,118.53c0,0-0.32,1.2-0.38,2.43c-0.06,1.34-0.01,2.53,1.67,2.65c1.68,0.11,61.56,0,62.56,0 s1.71-1.12,1.74-2.48c0.05-1.71-0.5-2.41-0.5-2.41L30.05,118.53z" fill="#606265"/>
</svg>

<svg viewBox="0 0 128 128" xmlns="http://www.w3.org/2000/svg">
  <defs/>
  <path d="M29.46,69.64 L10.32,80.17 C10.32,80.17 10.1,95.08 24.68,100.37 C36.9,104.81 48.17,98.59 53.63,93.4 C57.55,89.67 63.33,81.11 63.33,81.11 L29.46,69.64 Z" fill="#606265"/>
  <path d="M67.7,80.71 L68.66,86.31 C68.66,86.31 76.99,100.65 93.52,101.06 C107.72,101.41 114.83,91.91 116.87,85.22 C118.92,78.53 117.45,71.86 117.45,71.86 L67.7,80.71 Z" fill="#606265"/>
  <path d="M63.81,3.14 C62.19,3.02 38.89,24.46 27,40.28 C20.25,49.26 12.86,61.42 10.88,71.97 C8.83,82.9 11.55,89.96 19.21,93.82 C35.46,102.01 47.87,90.18 49.87,88.4 C52.53,86.03 55.71,81.52 57.25,82.35 C58.01,82.76 57.45,90.19 56.89,95.13 C56.36,99.84 54.07,105.51 46.51,108.62 C38.95,111.73 35.8,111.84 33.02,114.29 C30.24,116.73 30.04,118.53 30.04,118.53 L33.15,120.86 L92.94,120.64 L95.27,118.99 C95.27,118.99 94.2,115.82 89.03,113.26 C84.9,111.21 80.93,110.15 76.44,107.51 C72.25,105.05 70.53,98.84 70.45,95.46 C70.37,91.71 69.58,82.27 70.54,81.79 C72.05,81.04 73.42,84.67 78.07,88.63 C80.82,90.98 94.43,100.64 107.43,92.45 C114.81,87.81 118.27,80.68 117.54,72.78 C116.3,59.47 104.84,43.8 96.1,33.86 C82.18,18.02 65.79,3.29 63.81,3.14 Z" fill="#464C4F"/>
  <path d="M30.05,118.53 C30.05,118.53 29.73,119.73 29.67,120.96 C29.61,122.3 29.66,123.49 31.34,123.61 C33.02,123.72 92.9,123.61 93.9,123.61 C94.9,123.61 95.61,122.49 95.64,121.13 C95.69,119.42 95.14,118.72 95.14,118.72 L30.05,118.53 Z" fill="#606265"/>
</svg>
